X:1
T:Harriot [1], The
L:1/16
M:2/4
I:linebreak $
K:C
V:1 treble 
V:1
 e2e2 c2de | f2f2 d4 | B2B2 G2AB | cBcd efgf | e2e2 c2de | f2f2 d4 | B2B2 G2AB | c4 c4 :: %8
 g2g2e2c2 |$ a2ab c'bc'a | g2g2e2c2 | dcde c4 | g2g2e2c2 | a2ab c'bc'a | g2g2e2c2 | dcde c4 :| %16
